svg/clipboard_search.svg

<svg xmlns="http://www.w3.org/2000/svg" viewBox="0 0 24 24"><path d="M11.9 10.9a6.505 6.505 0 0 1 9.1-.08V5a2 2 0 0 0-2-2h-4.18C14.4 1.84 13.3 1 12 1s-2.4.84-2.82 2H5c-1.1 0-2 .9-2 2v14a2 2 0 0 0 2 2h8.06c-.41-.26-.8-.55-1.16-.9a6.525 6.525 0 0 1 0-9.2M12 3c.55 0 1 .45 1 1s-.45 1-1 1-1-.45-1-1 .45-1 1-1m8.31 14.9c.44-.69.69-1.52.69-2.4 0-2.5-2-4.5-4.5-4.5S12 13 12 15.5s2 4.5 4.5 4.5c.87 0 1.69-.25 2.38-.68L22 22.39 23.39 21zm-3.81.1a2.5 2.5 0 0 1 0-5 2.5 2.5 0 0 1 0 5"/></svg>

<?xml version="1.0" encoding="UTF-8"?><!DOCTYPE svg PUBLIC "-//W3C//DTD SVG 1.1//EN" "http://www.w3.org/Graphics/SVG/1.1/DTD/svg11.dtd"><svg xmlns="http://www.w3.org/2000/svg" xmlns:xlink="http://www.w3.org/1999/xlink" version="1.1" id="mdi-clipboard-search" width="24" height="24" viewBox="0 0 24 24"><path d="M11.9 10.9C14.41 8.4 18.45 8.37 21 10.82V5C21 3.9 20.11 3 19 3H14.82C14.4 1.84 13.3 1 12 1S9.6 1.84 9.18 3H5C3.9 3 3 3.9 3 5V19C3 20.11 3.9 21 5 21H13.06C12.65 20.74 12.26 20.45 11.9 20.1C9.37 17.56 9.37 13.44 11.9 10.9M12 3C12.55 3 13 3.45 13 4S12.55 5 12 5 11 4.55 11 4 11.45 3 12 3M20.31 17.9C20.75 17.21 21 16.38 21 15.5C21 13 19 11 16.5 11S12 13 12 15.5 14 20 16.5 20C17.37 20 18.19 19.75 18.88 19.32L22 22.39L23.39 21L20.31 17.9M16.5 18C15.12 18 14 16.88 14 15.5S15.12 13 16.5 13 19 14.12 19 15.5 17.88 18 16.5 18Z" /></svg>
